libs/ui/packages/crypto-icons/src/svg/AXL.svg

<svg width="19" height="19" viewBox="0 0 19 19" fill="none">
<path fill="#b2b6bc" d="M 3.746094 1.136719 L 2.609375 2.273438 L 3.210938 2.851562 C 3.546875 3.171875 4.964844 4.5625 6.367188 5.925781 C 8.75 8.253906 8.964844 8.429688 9.417969 8.429688 C 9.6875 8.429688 10.074219 8.347656 10.277344 8.242188 C 10.476562 8.136719 11.949219 6.730469 13.554688 5.125 L 16.457031 2.207031 L 14.25 0 L 9.566406 4.683594 L 7.226562 2.339844 L 4.882812 0 Z M 3.746094 1.136719 "/>
<path fill="#b2b6bc" d="M 1.136719 3.746094 L 0.0664062 4.816406 L 4.683594 9.433594 L 2.339844 11.773438 L 0 14.117188 L 1.097656 15.214844 L 2.207031 16.3125 L 5.3125 13.273438 C 8.589844 10.0625 8.738281 9.847656 8.417969 8.992188 C 8.296875 8.683594 2.460938 2.675781 2.273438 2.675781 C 2.234375 2.675781 1.726562 3.15625 1.136719 3.746094 Z M 1.136719 3.746094 "/>
<path fill="#b2b6bc" d="M 13.753906 5.578125 C 12.164062 7.183594 10.796875 8.628906 10.71875 8.789062 C 10.636719 8.953125 10.570312 9.3125 10.570312 9.582031 C 10.570312 10.0625 10.730469 10.25 13.675781 13.207031 L 16.792969 16.324219 L 19 14.117188 L 16.726562 11.839844 C 15.480469 10.582031 14.449219 9.5 14.449219 9.40625 C 14.449219 9.324219 15.496094 8.253906 16.753906 7.039062 L 19.066406 4.816406 L 17.996094 3.746094 C 17.40625 3.15625 16.871094 2.675781 16.792969 2.675781 C 16.710938 2.675781 15.347656 3.988281 13.753906 5.578125 Z M 13.753906 5.578125 "/>
<path fill="#b2b6bc" d="M 8.898438 10.625 C 8.683594 10.730469 7.171875 12.136719 5.554688 13.769531 L 2.609375 16.726562 L 3.71875 17.824219 L 4.816406 18.933594 L 9.5 14.25 L 14.183594 18.933594 L 15.292969 17.824219 L 16.402344 16.710938 L 13.421875 13.742188 C 11.773438 12.109375 10.289062 10.703125 10.128906 10.609375 C 9.753906 10.394531 9.394531 10.394531 8.898438 10.625 Z M 8.898438 10.625 "/>
</svg>

<svg width="19" height="19" viewBox="0 0 19 19" fill="none"><path fill="#b2b6bc" d="M3.746 1.137 2.61 2.273l.602.579c.336.32 1.754 1.71 3.156 3.074C8.75 8.254 8.965 8.43 9.418 8.43c.27 0 .656-.082.86-.188.199-.105 1.671-1.512 3.277-3.117l2.902-2.918L14.25 0 9.566 4.684 7.226 2.34 4.884 0ZM1.137 3.746l-1.07 1.07 4.617 4.618-2.344 2.34L0 14.116l1.098 1.098 1.109 1.098 3.106-3.04c3.277-3.21 3.425-3.425 3.105-4.28-.121-.31-5.957-6.317-6.145-6.317-.039 0-.546.48-1.136 1.07m12.617 1.833c-1.59 1.606-2.957 3.05-3.035 3.211-.082.164-.149.524-.149.793 0 .48.16.668 3.106 3.625l3.117 3.117L19 14.117l-2.273-2.277c-1.247-1.258-2.278-2.34-2.278-2.434 0-.082 1.047-1.152 2.305-2.367l2.312-2.223-1.07-1.07c-.59-.59-1.125-1.07-1.203-1.07-.082 0-1.445 1.312-3.04 2.902m-4.855 5.047c-.214.105-1.726 1.512-3.343 3.145l-2.946 2.957 1.11 1.097 1.097 1.11L9.5 14.25l4.684 4.684 1.109-1.11 1.11-1.113-2.981-2.969c-1.649-1.633-3.133-3.039-3.293-3.133-.375-.214-.734-.214-1.23.016m0 0"/></svg>
